X: 3
T: The Heathery Cruach
R: reel
M: 4/4
L: 1/8
K: Dmaj
A/B/c|: d2AG FDAG|FDAF EABc|d2AG FDAG|FGAF Dgfe|d2AG FDDE|FGAF E2FG|ABAG FDDE|1 FGAF D2:|FGAF Dfed|||:cAA2 cAGA|cBcd efed|cAA2 cAGE|FAGE Dfed|cAA2 cAGA|cBcd e2~e2|f2ed cAAG|1 EFGE Afed:|EFGE D2||


Tune 1265	Setting 14578

